lib/svgs/user.svg

<svg xmlns="http://www.w3.org/2000/svg" viewBox="0 0 20 20">
    <path fill="#000" fill-rule="evenodd" d="M16.8221701,18.001 C16.5431701,18.001 16.2931701,17.805 16.2351701,17.522 L15.6471701,14.66 C15.5291701,14.46 15.3451701,14.308 15.1241701,14.229 L11.5051701,12.938 C10.9241701,12.73 10.5341701,12.177 10.5341701,11.561 L10.5341701,11.043 C10.5341701,10.36 10.8361701,9.718 11.3621701,9.282 C11.9581701,8.787 12.3011701,8.067 12.3011701,7.307 L12.3011701,5.789 C12.3011701,4.361 11.1391701,3.2 9.71217013,3.2 C8.28417013,3.2 7.12217013,4.361 7.12217013,5.789 L7.12217013,7.307 C7.12217013,8.07 7.46717013,8.792 8.06717013,9.286 C8.59117013,9.718 8.89117013,10.355 8.89117013,11.032 L8.89117013,11.56 C8.89117013,12.176 8.50117013,12.73 7.92017013,12.937 L4.30017013,14.229 C4.07817013,14.308 3.89417013,14.46 3.77617013,14.661 L3.18817013,17.522 C3.12217013,17.846 2.80517013,18.053 2.48017013,17.988 C2.15517013,17.922 1.94617013,17.605 2.01217013,17.279 L2.61817013,14.333 C2.62917013,14.282 2.64617013,14.233 2.66917013,14.187 C2.92317013,13.676 3.35917013,13.29 3.89617013,13.098 L7.51617013,11.807 C7.62117013,11.77 7.69117013,11.67 7.69117013,11.56 L7.69117013,11.032 C7.69117013,10.714 7.55017013,10.415 7.30417013,10.212 C6.42617013,9.489 5.92217013,8.43 5.92217013,7.307 L5.92217013,5.789 C5.92217013,3.7 7.62217013,2 9.71217013,2 C11.8011701,2 13.5011701,3.7 13.5011701,5.789 L13.5011701,7.307 C13.5011701,8.425 13.0001701,9.482 12.1281701,10.206 C11.8781701,10.413 11.7341701,10.718 11.7341701,11.043 L11.7341701,11.561 C11.7341701,11.671 11.8041701,11.771 11.9081701,11.808 L15.5271701,13.098 C16.0651701,13.29 16.5011701,13.677 16.7541701,14.187 C16.7781701,14.233 16.7941701,14.282 16.8051701,14.333 L17.4101701,17.279 C17.4771701,17.605 17.2681701,17.922 16.9431701,17.988 C16.9031701,17.996 16.8621701,18.001 16.8221701,18.001 L16.8221701,18.001 Z"/>
</svg>

<svg xmlns="http://www.w3.org/2000/svg" viewBox="0 0 20 20">
    <path fill="#000" fill-rule="evenodd" d="M16.822 18.001a.6.6 0 0 1-.587-.479l-.588-2.862a.993.993 0 0 0-.523-.431l-3.619-1.291a1.466 1.466 0 0 1-.97-1.377v-.518c0-.683.301-1.325.827-1.761a2.567 2.567 0 0 0 .94-1.975V5.789a2.592 2.592 0 0 0-5.18 0v1.518c0 .763.345 1.485.945 1.979.524.432.824 1.069.824 1.746v.528c0 .616-.39 1.17-.97 1.377L4.3 14.229a.99.99 0 0 0-.525.432l-.588 2.861a.6.6 0 0 1-1.176-.243l.606-2.946a.617.617 0 0 1 .051-.146c.254-.511.69-.897 1.227-1.089l3.62-1.291a.263.263 0 0 0 .175-.247v-.528a1.06 1.06 0 0 0-.387-.82 3.757 3.757 0 0 1-1.382-2.905V5.789a3.794 3.794 0 0 1 7.58 0v1.518a3.764 3.764 0 0 1-1.374 2.899c-.25.207-.394.512-.394.837v.518c0 .11.07.21.174.247l3.62 1.29c.537.192.973.579 1.226 1.089.024.046.04.095.051.146l.605 2.946a.599.599 0 0 1-.588.722"/>
</svg>
